X:1067
T:Loui's Waltz 
C:Joe Buchanan's Scottish Tome - Page 649.0
I:649 0
R:Waltz
Z:Carl Allison
L:1/8
M:3/4
K:D
A>G |"D" F2 (D>F)A>d |"D" f4 (e>f) |"G" (gbbg) f>g |"E7"(B3 d) c>B |
"A7"(A>G)E>F G>A|   "A7"e2 B2 G2 | "D"(F2>E2) F>G | "A7"F4 (A>G) |
"D"F2 (D>F)A>d |"B7"f4 (e>f) | "Em"(gbbg) f>g | "Em"(B2>d2) c>B |
"A7"(A>G)E>F G>A | "A7/C"c2 (B>c)A>c | "D"(d2>e2) d2 | "D"d2> (A2 B>A) |
"A7"G2>(A2 B>A) | "A7"c2 B2 A2 | "D"(F2>D2) F>A | "D"d2 (c2 d2) |
"Em"e4 (e>f) | "A7"e2 A2 (G>E) | "D"F3 F F2 | "D"F4 E>F |
"Em"(G2>A2) B>A | "A7"c2 B2 A2 | "D"(F2>D2) F>A | "D7"d2 (c2 d2) |
"Em"(E2>E2) E>F | "A7"G2 F2 E2 | "D"D2>E2 "A7"D2 | "D"D4 |]

